**kern	**kern	**dynam
*part1	*part1	*part1
*staff2	*staff1	*
*I"Piano	*	*
*clefF4	*clefG2	*
*k[f#c#g#]	*k[f#c#g#]	*
=1	=1	=1
*	*^	*
*	*	*^	*
2.EE] 2.E]	2.e]	4.B_)	2.Gn\	.
.	.	4B]	.	.
.	.	8c#X	.	.
*	*v	*v	*v	*
*	*clefF4	*
=	=	=
*	*^	*
2.BBB 2.BB	2.d	[4.F#	pp
.	.	4F#]	.
.	.	8G#X	.
*	*v	*v	*
=	=	=
[4.CC# [4.C#	(2.E [2.A 2.c#	.
4CC#] 4C#]	.	.
8DD 8D	.	.
=	=	=
[2.EE [2.E	2.A]) [2.B	>
=	=	=
*	*^	*
2.EE] 2.E]	2.B]	[4.G#	.
.	.	4G#]	.
.	.	8A	]
*	*v	*v	*
=	=	=
[2.AAA [2.AA	[2.D [2.F# [2.A	.
=	=	=
2.AAA_ 2.AA_	2.D] 2.F#] 2.A_	.
=	=	=
4AAA] 4AA]	4C# 4E 4A]	.
8r	8r	.
==	==	==
*-	*-	*-
!!!system-decoration: {(s1,s2)}
